packages/dnb-eufemia/assets/icons/snowmobile.svg

<svg width="16" height="16" viewBox="0 0 16 16" fill="none" xmlns="http://www.w3.org/2000/svg">
<path d="M12.1985 8.00639H14.7862M15 11.3269C15 12.5341 13.9055 12.75 12.9767 12.75M10.3309 12.75H12.9767M7.99635 3.25519C8.59671 3.25519 9.35568 3.15339 9.63053 3.85162L10.2375 5.44484M14.7862 8.00639C14.3252 6.53097 13.3908 5.24596 12.122 4.36393C11.2536 3.78342 10.6727 4.85532 10.2375 5.44484M14.7862 8.00639C15.0088 8.7186 15.1688 9.90223 14.0656 9.90383H12.1985M10.2375 5.44484C9.90152 5.89998 9.57205 6.58331 8.93017 6.58331H6.51531C5.52698 6.58309 5.30091 5.16043 4.34137 5.16022H2.05351C1.20259 5.15621 0.705758 6.18151 1.19004 6.86413C2.14442 7.80652 3.11879 8.72424 4.05826 9.68219M4.05826 9.68219L5.87969 8.98673C6.79013 8.63954 7.80292 9.08334 8.24153 9.90383M4.05826 9.68219L1.70862 10.5793C0.634229 10.9909 0.887538 12.7483 2.09647 12.75H6.55017C7.94749 12.7513 8.90105 11.1376 8.24153 9.90383M8.24153 9.90383L12.1985 9.90383M12.1985 9.90383L12.9767 12.75" stroke="black" stroke-width="1.5" stroke-linecap="round" stroke-linejoin="round"/>
</svg>

<svg width="16" height="16" viewBox="0 0 16 16" fill="none" xmlns="http://www.w3.org/2000/svg"><path d="M15 11.327c0 1.207-1.095 1.423-2.023 1.423m-2.646 0h2.646M7.25 3.255c1.35 0 2.106-.102 2.38.597l.607 1.593m0 0c-.335.455-.665 1.138-1.307 1.138H6.515c-.988 0-1.214-1.423-2.174-1.423H2.054C1.203 5.156.706 6.182 1.19 6.864c.954.943 1.929 1.86 2.868 2.818m6.18-4.237c.435-.59 1.016-1.662 1.884-1.081a6.96 6.96 0 0 1 2.664 3.642c.223.713.383 1.896-.72 1.898h-1.868m-8.14-.222 1.822-.695c.91-.347 1.923.096 2.362.917m-4.184-.222-2.35.897c-1.074.412-.82 2.17.388 2.171H6.55c1.397.001 2.351-1.612 1.692-2.846m0 0h3.956m0 0 .779 2.846" stroke="#000" stroke-width="1.5" stroke-linecap="round" stroke-linejoin="round"/></svg>
